src/assets/img/check-mark.svg

<svg xmlns="http://www.w3.org/2000/svg" width="20" height="20" fill="none"><path fill="#54D62C" d="M10 0C4.49 0 0 4.49 0 10s4.49 10 10 10 10-4.49 10-10S15.51 0 10 0Zm4.78 7.7-5.67 5.67a.75.75 0 0 1-1.06 0l-2.83-2.83a.754.754 0 0 1 0-1.06c.29-.29.77-.29 1.06 0l2.3 2.3 5.14-5.14c.29-.29.77-.29 1.06 0 .29.29.29.76 0 1.06Z"/></svg>

<svg width="20" height="20" viewBox="0 0 20 20" fill="none" xmlns="http://www.w3.org/2000/svg">
<path d="M10 0C4.49 0 0 4.49 0 10C0 15.51 4.49 20 10 20C15.51 20 20 15.51 20 10C20 4.49 15.51 0 10 0ZM14.78 7.7L9.11 13.37C8.97 13.51 8.78 13.59 8.58 13.59C8.38 13.59 8.19 13.51 8.05 13.37L5.22 10.54C4.93 10.25 4.93 9.77 5.22 9.48C5.51 9.19 5.99 9.19 6.28 9.48L8.58 11.78L13.72 6.64C14.01 6.35 14.49 6.35 14.78 6.64C15.07 6.93 15.07 7.4 14.78 7.7Z" fill="#54D62C"/>
</svg>
